styles/images/“.svg

<svg width="67" height="56" viewBox="0 0 67 56" fill="none" xmlns="http://www.w3.org/2000/svg">
<path fill-rule="evenodd" clip-rule="evenodd" d="M26.4634 52.0327C23.6407 54.6776 19.9106 56 15.2732 56C10.535 56 6.80488 54.525 4.08293 51.5749C1.36098 48.6249 0 44.4541 0 39.0627C0 35.4005 0.85691 31.2298 2.57073 26.5504C4.28455 21.871 6.57805 17.1916 9.45122 12.5123C12.3244 7.83288 15.626 3.66213 19.3561 0H31C29.2862 4.06903 27.9756 7.78202 27.0683 11.139C26.161 14.4959 25.7073 17.5477 25.7073 20.2943C25.7073 23.4478 26.1106 26.1435 26.9171 28.3815C27.7236 30.6194 28.5553 32.8065 29.4122 34.9428C30.2691 37.079 30.6976 39.6222 30.6976 42.5722C30.6976 46.2343 29.2862 49.3878 26.4634 52.0327ZM62.4634 52.0327C59.6407 54.6776 55.9106 56 51.2732 56C46.535 56 42.8049 54.525 40.0829 51.5749C37.361 48.6249 36 44.4541 36 39.0627C36 35.4005 36.8569 31.2298 38.5707 26.5504C40.2846 21.871 42.578 17.1916 45.4512 12.5123C48.3244 7.83288 51.626 3.66213 55.3561 0H67C65.2862 4.06903 63.9756 7.78202 63.0683 11.139C62.161 14.4959 61.7073 17.5477 61.7073 20.2943C61.7073 23.4478 62.1106 26.1435 62.9171 28.3815C63.7236 30.6194 64.5553 32.8065 65.4122 34.9428C66.2691 37.079 66.6976 39.6222 66.6976 42.5722C66.6976 46.2343 65.2862 49.3878 62.4634 52.0327Z" fill="#2C6269"/>
</svg>

<svg width="67" height="56" fill="none" xmlns="http://www.w3.org/2000/svg"><path fill-rule="evenodd" clip-rule="evenodd" d="M26.463 52.033C23.641 54.678 19.911 56 15.273 56c-4.738 0-8.468-1.475-11.19-4.425C1.36 48.625 0 44.455 0 39.063 0 35.4.857 31.23 2.57 26.55c1.715-4.679 4.008-9.358 6.881-14.038S15.626 3.662 19.356 0H31c-1.714 4.069-3.024 7.782-3.932 11.139-.907 3.357-1.36 6.409-1.36 9.155 0 3.154.403 5.85 1.21 8.087a197.371 197.371 0 0 0 2.494 6.562c.857 2.136 1.286 4.68 1.286 7.63 0 3.661-1.412 6.815-4.235 9.46Zm36 0C59.641 54.678 55.911 56 51.273 56c-4.738 0-8.468-1.475-11.19-4.425C37.36 48.625 36 44.455 36 39.063c0-3.663.857-7.833 2.57-12.513 1.715-4.679 4.008-9.358 6.881-14.038S51.626 3.662 55.356 0H67c-1.714 4.069-3.024 7.782-3.932 11.139-.907 3.357-1.36 6.409-1.36 9.155 0 3.154.403 5.85 1.21 8.087a197.371 197.371 0 0 0 2.494 6.562c.857 2.136 1.286 4.68 1.286 7.63 0 3.661-1.412 6.815-4.235 9.46Z" fill="#2C6269"/></svg>
